X:1
T:Accepted in the Belovd
T:Accepted in the Belovd
T:Wendell Phillips Loveless
T:Civilla Durfee Martin, 1930
T:© 1930, renewed 1958, Hope Publishing Company Courtesy of the Cyber Hymnal™
T:© 1930, renewed 1958, Hope Publishing Company Courtesy of the Cyber Hymnal™
C:Wendell Phillips Loveless
Z:© 1930, renewed 1958, Hope Publishing Company
Z:Courtesy of the Cyber Hymnal™
%%score ( 1 2 ) ( 3 4 )
L:1/8
Q:1/4=190
M:9/4
K:Eb
V:1 treble 
V:2 treble 
V:3 bass 
V:4 bass 
V:1
 [EG]2 [EG]2 [EG]2 [EG]6 [EB]4 [EG]2 | [DG]2 [DF]2 [DG]2 E12 | %2
w: 1.~“In the Be- lov- èd” ac-|cept- ed am I,|
w: 2.~“In the Be- lov- èd”— how|safe my re- treat,|
w: 3.~“In the Be- lov- èd” I|went to the tree,|
 [Ec]2 [CA]2 [Ec]2 [EB]6 [EG]4 [EG]2 | [CG]2 [CF]2 [CE]2 [DF]12 | %4
w: Ris- en, as- cend- ed, and|seat- ed on high;|
w: In the Be- lov- èd ac-|count- ed com- plete;|
w: There, in His Per- son, by|faith I may see|
 [EG]2 [EG]2 [EG]2 [EG]6 [EB]4 [EG]2 | [DG]2 [DF]2 [DG]2 [CE]12 | %6
w: Saved from all sin thro’ His|in- fi- nite grace,|
w: “Who can con- demn me?” In|Him I am free,|
w: In- fi- nite wrath roll- ing|o- ver His head,|
 [CE]2 [B,D]2 [=A,C]2 [B,D]6 [DF]4 [B,D]2 | [=A,F]2 [A,E]2 [A,C]2 [DF]12 || %8
w: With the re- deemed ones ac-|cord- ed a place.|
w: Sav- ior and Keep- er for-|ev- er is He.|
w: In- fi- nite grace, for He|died in my stead.|
"^Refrain" [EB]2 [EB]2 [EB]2 [EG]6 [EG]4 [EG]2 | [DB]2 [DF]2 [^C=E]2 [DF]12 | %10
w: ||
w: “In the Be- lov- èd,” God’s|mar- ve- lous grace|
w: ||
 [Ac]2 [Ac]2 [Ac]2 [FA]6 [FA]4 [FA]2 | [EB]2 [EG]2 [E^F]2 [EG]12 | %12
w: ||
w: Calls me to dwell in this|won- der- ful place;|
w: ||
 [EB]2 [EB]2 [EB]2 [EG]6 [EG]4 [EG]2 | [EG]2 [EA]2 [EB]2 [Ec]12 | %14
w: ||
w: God sees my Sav- ior, and|then He sees me,|
w: ||
 [EA]2 [EG]2 [EF]2 [EB]6 [EG]4 E2 | [DF]2 [DG]3 [B,F] [B,E]12 |] %16
w: ||
w: “In the Be- lov- èd,” ac-|cept- ed and free.|
w: ||
V:2
 x18 | x6 E12 | x18 | x18 | x18 | x18 | x18 | x18 || x18 | x18 | x18 | x18 | x18 | x18 | x16 E2 | %15
 x18 |] %16
V:3
 [E,B,]2 [E,B,]2 [E,B,]2 [E,B,]6 [E,G,]4 [E,B,]2 | [B,,B,]2 [B,,A,]2 [B,,B,]2 [E,G,]12 | %2
 [A,,A,]2 [A,,A,]2 [A,,A,]2 [E,G,]6 [E,B,]4 [E,B,]2 | [F,=A,]2 [F,A,]2 [F,A,]2 (B,6 _A,6) | %4
 [E,B,]2 [E,B,]2 [E,B,]2 [E,B,]6 [E,G,]4 [E,B,]2 | [B,,B,]2 [B,,A,]2 [B,,B,]2 [C,G,]12 | %6
 [F,,F,]2 [F,,F,]2 [F,,F,]2 [B,,F,]6 [B,,B,]4 [B,,F,]2 | F,2 F,2 F,2 (B,6 A,6) || %8
 [E,G,]2 [E,G,]2 [E,G,]2 [E,B,]6 [E,B,]4 [E,B,]2 | [B,,B,]2 [B,,A,]2 [B,,G,]2 [B,,A,]12 | %10
 [B,,B,]2 [B,,B,]2 [B,,B,]2 B,6 B,4 B,2 | [E,G,]2 [E,B,]2 [E,=A,]2 [E,B,]12 | %12
 [E,G,]2 [E,G,]2 [E,G,]2 [E,B,]6 [E,B,]4 [E,B,]2 | [E,_D]2 [E,C]2 [E,G,]2 A,12 | %14
 [A,C]2 [A,C]2 [A,_C]2 [G,B,]6 [E,B,]4 [E,G,]2 | [B,,B,]2 [B,,B,]3 [B,,A,] [E,G,]12 |] %16
V:4
 x18 | x18 | x18 | x6 B,,12 | x18 | x18 | x18 | F,2 F,2 F,2 B,,12 || x18 | x18 | x6 B,6 B,4 B,2 | %11
 x18 | x18 | x6 A,12 | x18 | x18 |] %16

